dist/assets/img/main/main-block/icons/2.svg

<svg width="92" height="60" viewBox="0 0 92 60" fill="none" xmlns="http://www.w3.org/2000/svg">
<path d="M85.6998 25.4361L83.3691 15.6109C84.0063 15.4683 84.4845 14.8725 84.4845 14.1587V12.5746C84.4845 9.13506 81.8293 6.33693 78.5659 6.33693H67.9501V3.06935C67.9501 1.37684 66.6437 0 65.0377 0H10.9248C9.31884 0 8.01243 1.37684 8.01243 3.06935V30.0003C8.01243 30.8204 8.64331 31.4855 9.42167 31.4855C10.1999 31.4855 10.8309 30.8206 10.8309 30.0003V3.06935C10.8309 3.0147 10.8729 2.97042 10.9248 2.97042H65.0376C65.0894 2.97042 65.1314 3.0147 65.1314 3.06935V30.0007C65.1314 30.8208 65.7623 31.4859 66.5407 31.4859C67.3189 31.4859 67.9499 30.821 67.9499 30.0007V28.317H84.5734C84.5748 28.317 84.5759 28.3174 84.5771 28.3174C84.5785 28.3174 84.5797 28.3172 84.581 28.3172C86.6265 28.3187 88.3634 29.7337 88.96 31.6835H84.5781C83.8 31.6835 83.1689 32.3484 83.1689 33.1687V36.337C83.1689 38.903 85.1496 40.9905 87.5844 40.9905H89.1815V47.5251H85.4968C84.2863 43.8416 80.9639 41.1884 77.0624 41.1884C73.161 41.1884 69.8383 43.8416 68.6281 47.5251H67.9496V36.3368C67.9496 35.5167 67.3187 34.8516 66.5403 34.8516C65.7621 34.8516 65.1311 35.5165 65.1311 36.3368V47.5247H35.8937C34.6832 43.8413 31.3608 41.188 27.4593 41.188C23.5579 41.188 20.2352 43.8413 19.025 47.5247H10.9248C10.8729 47.5247 10.8309 47.4805 10.8309 47.4258V44.1584H16.9374C17.7156 44.1584 18.3466 43.4935 18.3466 42.6732C18.3466 41.8529 17.7158 41.188 16.9374 41.188H3.40924C2.63106 41.188 2 41.8529 2 42.6732C2 43.4935 2.63088 44.1584 3.40924 44.1584H8.01261V47.4258C8.01261 49.1183 9.31902 50.4952 10.925 50.4952H18.537C18.5367 50.5281 18.5345 50.5609 18.5345 50.5941C18.5345 55.7806 22.5383 60 27.4593 60C32.3803 60 36.3841 55.7806 36.3841 50.5941C36.3841 50.5607 36.382 50.5281 36.3816 50.4952H68.1401C68.1398 50.5281 68.1376 50.5609 68.1376 50.5941C68.1376 55.7806 72.1414 60 77.0624 60C81.9834 60 85.9872 55.7806 85.9872 50.5941C85.9872 50.5607 85.9851 50.5281 85.9847 50.4952H90.5908C91.3689 50.4952 92 49.8303 92 49.01V33.1684C92.0002 29.2572 89.262 26.0076 85.6998 25.4361ZM67.9501 9.30717H78.5659C80.2754 9.30717 81.6662 10.7729 81.6662 12.5746V12.6735H67.9501V9.30717ZM67.9501 25.3468V15.6437H80.4719L82.7736 25.3468H67.9501ZM27.4593 57.0301C24.0922 57.0301 21.3528 54.1433 21.3528 50.5945C21.3528 47.0457 24.0922 44.1588 27.4593 44.1588C30.8264 44.1588 33.5658 47.0457 33.5658 50.5945C33.5658 54.1433 30.8264 57.0301 27.4593 57.0301ZM77.0628 57.0301C73.6957 57.0301 70.9563 54.1433 70.9563 50.5945C70.9563 47.0457 73.6957 44.1588 77.0628 44.1588C80.4299 44.1588 83.1693 47.0457 83.1693 50.5945C83.1693 54.1433 80.4299 57.0301 77.0628 57.0301ZM89.1819 38.0201H87.5847C86.7041 38.0201 85.9876 37.265 85.9876 36.3368V34.6536H89.1817V38.0201H89.1819Z" fill="white"/>
<path d="M27.5 48C26.1214 48 25 49.1214 25 50.5C25 51.8786 26.1214 53 27.5 53C28.8786 53 30 51.8786 30 50.5C30 49.1214 28.8786 48 27.5 48Z" fill="white"/>
<path d="M77.1035 48C75.725 48 74.6035 49.1214 74.6035 50.5C74.6035 51.8786 75.725 53 77.1035 53C78.4821 53 79.6035 51.8786 79.6035 50.5C79.6035 49.1214 78.4821 48 77.1035 48Z" fill="white"/>
<path d="M34.4531 37H13.4092C12.6311 37 12 37.6788 12 38.5162C12 39.3536 12.6309 40.0324 13.4092 40.0324H34.4531C35.2313 40.0324 35.8624 39.3536 35.8624 38.5162C35.8624 37.6788 35.2315 37 34.4531 37Z" fill="white"/>
<path d="M19.4469 33H1.40924C0.631056 33 0 33.6788 0 34.5162C0 35.3536 0.63088 36.0324 1.40924 36.0324H19.4469C20.2251 36.0324 20.8561 35.3536 20.8561 34.5162C20.8561 33.6788 20.2251 33 19.4469 33Z" fill="white"/>
<path d="M51.0027 14.999C50.4525 14.407 49.5601 14.407 49.0099 14.9992L36.4781 28.482L29.9588 21.468C29.4085 20.8758 28.5162 20.8758 27.966 21.468C27.4156 22.0601 27.4156 23.0199 27.966 23.6121L35.4817 31.6983C35.7568 31.9944 36.1175 32.1423 36.4781 32.1423C36.8386 32.1423 37.1995 31.9944 37.4744 31.6983L51.0025 17.1433C51.5529 16.5509 51.5529 15.5911 51.0027 14.999Z" fill="white"/>
</svg>

<svg width="92" height="60" fill="none" xmlns="http://www.w3.org/2000/svg"><path d="M85.7 25.436l-2.33-9.825c.636-.143 1.114-.739 1.114-1.452v-1.584c0-3.44-2.655-6.238-5.918-6.238H67.95V3.069C67.95 1.377 66.644 0 65.038 0H10.925C9.319 0 8.012 1.377 8.012 3.07V30c0 .82.631 1.485 1.41 1.485.778 0 1.409-.664 1.409-1.485V3.07c0-.055.042-.1.094-.1h54.113c.051 0 .093.045.093.1V30c0 .82.631 1.486 1.41 1.486.778 0 1.409-.665 1.409-1.485v-1.684h16.63c2.045.002 3.782 1.417 4.379 3.366h-4.382c-.778 0-1.41.665-1.41 1.486v3.168c0 2.566 1.982 4.653 4.416 4.653h1.597v6.535h-3.684c-1.21-3.683-4.533-6.337-8.435-6.337-3.901 0-7.224 2.654-8.434 6.337h-.678V36.337c0-.82-.631-1.485-1.41-1.485-.778 0-1.409.665-1.409 1.485v11.188H35.894c-1.21-3.684-4.533-6.337-8.435-6.337-3.901 0-7.224 2.653-8.434 6.337h-8.1a.096.096 0 01-.094-.1v-3.267h6.106c.779 0 1.41-.665 1.41-1.485 0-.82-.631-1.485-1.41-1.485H3.41c-.778 0-1.409.665-1.409 1.485 0 .82.63 1.485 1.41 1.485h4.603v3.268c0 1.692 1.306 3.07 2.912 3.07h7.612l-.002.098c0 5.187 4.003 9.406 8.924 9.406 4.921 0 8.925-4.22 8.925-9.406l-.002-.099H68.14l-.002.1c0 5.186 4.003 9.405 8.924 9.405 4.921 0 8.925-4.22 8.925-9.406l-.002-.099h4.606c.778 0 1.409-.665 1.409-1.485V33.168c0-3.91-2.738-7.16-6.3-7.732zM67.95 9.307h10.616c1.71 0 3.1 1.466 3.1 3.268v.099H67.95V9.306zm0 16.04v-9.703h12.522l2.302 9.703H67.95zM27.46 57.03c-3.368 0-6.107-2.887-6.107-6.436 0-3.548 2.74-6.435 6.106-6.435 3.367 0 6.107 2.887 6.107 6.435 0 3.55-2.74 6.436-6.107 6.436zm49.603 0c-3.367 0-6.107-2.887-6.107-6.436 0-3.548 2.74-6.435 6.107-6.435s6.106 2.887 6.106 6.435c0 3.55-2.74 6.436-6.106 6.436zm12.119-19.01h-1.597c-.88 0-1.597-.755-1.597-1.683v-1.683h3.194v3.366z" fill="#fff"/><path d="M27.5 48a2.503 2.503 0 00-2.5 2.5c0 1.379 1.121 2.5 2.5 2.5s2.5-1.121 2.5-2.5-1.121-2.5-2.5-2.5zm49.603 0a2.503 2.503 0 00-2.5 2.5c0 1.379 1.122 2.5 2.5 2.5 1.38 0 2.5-1.121 2.5-2.5s-1.12-2.5-2.5-2.5zm-42.65-11H13.41c-.778 0-1.409.679-1.409 1.516 0 .838.63 1.516 1.41 1.516h21.043c.778 0 1.41-.678 1.41-1.516 0-.837-.632-1.516-1.41-1.516zm-15.006-4H1.409C.631 33 0 33.679 0 34.516c0 .838.63 1.516 1.41 1.516h18.037c.778 0 1.41-.678 1.41-1.516 0-.837-.632-1.516-1.41-1.516zm31.556-18.001a1.34 1.34 0 00-1.993 0L36.478 28.482l-6.52-7.014a1.34 1.34 0 00-1.992 0 1.598 1.598 0 000 2.144l7.516 8.086c.275.296.636.444.996.444s.721-.148.996-.444l13.529-14.555a1.6 1.6 0 000-2.144z" fill="#fff"/></svg>
